X:1
T:Inviolata - Josquin des Prez
T:#
%%score [ 1 2 { 3 | 4 } 5 ]
L:1/8
Q:1/4=180
M:none
K:F
V:1 treble nm="Soprano" snm="S"
V:2 treble nm="Alto" snm="A"
V:3 treble-8 nm="Tenor I" snm="T"
V:4 treble-8 
V:5 bass nm="Bass" snm="B"
V:1
"^Prima pars""^Inviolata, integra et casta es""^Josquin des Prez \n(1450-1521)" F16 | F8 F8 | G16 | %3
w: In-|vi- o-|la-|
 A8 z4 (c4- | c2 B2) (A6 G2 F4) | E4 (D8 C2 B,2) | A,8 z4 (c4- | c2 B2) (A6 G2 F4) | %8
w: ta, in\-|* * vi\- * *|o- la\- * *|ta, in\-|* * vi\- * *|
 E4 (D8 C2 B,2) | A,8 z4 (c4- | c2 B2) (A6 G2 F4) | E4 (D8 C2 B,2) | A,8 z4 c4 | (c6 B2) (A6 G2) | %14
w: o- la\- * *|ta, in\-|* * vi\- * *|o- la\- * *|ta, in-|vi\- * o\- *|
 (F4 E4) (D8 | C16) | z8 G8 | (A4 F4 A8) | G8 z8 | z16 | z4 (A6 G2) E4 | F8 E4 c4 | B4 (A8 G2 F2) | %23
w: la * ta,||in-|te\- * *|gra||et * ca-|sta es, et|ca- sta * *|
 E4 G6 (F2 E2 D2) | C8 z4 G4 | A12 B4 | c8 F8 | z16 | z8 z4 (c4- | c2 B2 G4) A8 | G16 | z16 | z16 | %33
w: es, Ma- ri\- * *|a, quae|es ef-|fe- cta||ful\-|* * * gi-|da|||
 z16 | c8 B4 (A4- | A2 G2 G2 F2) A8 | z8 (c8- | c4 B4) A8 | G8 z8 | z16 | z8 z4 G4 | %41
w: |cae- li por\-|* * * * ta.|O|* * ma-|ter||al-|
 F4 (A6 G2 E4) | (F8 E8) | z16 | z8 z4 C4 | (D4 A,4) =B,8 | A,8 z4 A,4 | C8 =B,8 | A,16 | z8 C8 | %50
w: ma Chri\- * *|sti, *||ca-|ris\- * si-|ma, ca-|ris- si-|ma.|Sus-|
 (D4 F4) F8 | A,8 =B,8 | (C12 =B,2 A,2) | A8 z4 (A4- | A2 G2) E4 F8 | E16 | z16 | z16 | z8 z4 E4 | %59
w: ci\- * pe|pi- a.|Lau\- * *|dum prae\-|* * co- ni-|a,|||prae-|
 (F4 E4) d8 | c8 z4 c4 | (d4 A4) d8 | c16- | c16 ||"^Secunda pars" z16 | z16 | z16 | z16 | z16 | %69
w: co\- * ni-|a, prae-|co\- * ni-|a.|||||||
 z16 | z16 | z16 | z16 | z16 | z16 | z16 | z4 c4 (A4 F4) | (C4 F8) E4 | F16 | z16 | z4 G4 (E4 G4- | %81
w: |||||||Quae nunc *|fla\- * gi-|tant||de- vo\- *|
 G2 F2 D4 E2 F2 G2 E2) | F8 z4 D4 | (F6 G2 A6 B2) | c8 (F6 G2) | A8 z4 F4 | c4 A4 d8 | %87
w: |ta cor-|da * * *|et o\- *|ra. Tu-|a per pec-|
 (c12 B2 A2) | G8 z4 F4 | G4 A8 (G4 | A16) | z8 A8 | (G6 F2) G8 | A8 z4 c4 | c4 c4 d8 | %95
w: ca\- * *|ta dul-|ci- so- na,||dul-|ci\- * so-|na no-|bis con- ce-|
 c4 (A8 G2 F2) | G8 F8 | z16 | z4 A4 (c6 B2 | G4 A8) G4 | A16 | z16 | z4 A4 =B4 G4 | A8 z4 c4 | %104
w: das ve\- * *|ni- am||per sae\- *|* * cu-|la,||per sae- cu-|la, per|
 (=B4 G4) (A6 B2) | c16- | c16 ||[M:4/2]"^Tertia pars" z8 c8- | c8 G8 | G8 (B8- | B4 A2 G2 F6 G2 | %111
w: sae\- * cu\- *|la.||O|* be-|ni- gna,||
 A6 B2 c8) | z8 c8- | c8 G8 | G8 (!courtesy!_B8- | B4 A2 G2 F6 G2 | A6 B2 c8) | z8 c8- | c8 G8 | %119
w: |O|* re-|gi- na,|||O|* Ma-|
 G8 (B8- | B4 A2 G2 F8) | z8 C8 | D8 E8 | z16 | z8 F8 | G8 A8 | z8 z4 G4 | A8 D8 | E8 F8 | z8 G8 | %130
w: ri- a||quae|so- la,||quae|so- la|in-|vi- o-|la- ta|per-|
 (F6 E2) D8 | C8 F8 | E4 (G4 F4 A4- | A2 G2 F4) E4 (c4- | c2 B2 A2 G2 F2 G2 A2 F2 | G4) E4 G8- | %136
w: man\- * si-|sti, per-|man- si\- * *|* * * sti, per\-||* man- si\-|
 G4 (F2 E2 D4) (B4- | B4 A2 G2) (F6 G2 | A2 B2 c4) A4 (c2 B2 | A2 G2 A4) z4 (c4- | c2 B2 A8 G2 F2 | %141
w: * sti, * * per\-|* * * man\- *|* * * si- sti, *|* * * per\-||
 E4) (C2 D2 E2 F2 G4- | G2 F2 F8) E4 | F16- | F16 | F16 | F16 |] %147
w: * man\- * * * *|* * * si-|sti.||||
V:2
 z16 | z16 | z16 | z16 | z16 | z16 | z16 | z16 | z16 | z16 | z16 | z16 | C16 | C8 C8 | D16 | E16- | %16
w: ||||||||||||In-|vi- o-|la-|ta,|
 E16 | z8 F8 | E8 D8 | E8 D8 | C16 | D8 C8 | D16 | E16- | E16 | z16 | z16 | z16 | C16 | E8 F8 | %30
w: |in-|te- gra|et ca-|sta|es, Ma-|ri-|a,|||||quae|es ef-|
 E8 D8 | z8 E8 | D8 C8 | z8 D8 | C8 D8- | D8 E8 | z16 | z16 | z16 | E16 | D8 C8 | D12 C4 | D8 E8 | %43
w: fe- cta|ful-|gi- da|cae-|li por\-|* ta.||||O|ma- ter|al- ma|Chri- sti,|
 z16 | z16 | z8 G8 | (F4 E4) D8 | E8 G8 | (F4 E4) D8 | E16 | z16 | z16 | z8 E8 | D4 C4 D8 | C8 D8 | %55
w: ||ca-|ris\- * si-|ma, ca-|ris\- * si-|ma.|||Sus-|ci- pe pi-|a. Lau-|
 E16 | z16 | z16 | z8 G8 | F8 D8 | E8 z4 E4 | F8 D8 | E16- | E16 || z16 | z16 | z16 | z16 | z16 | %69
w: dum|||prae-|co- ni-|a, prae-|co- ni-|a.|||||||
 z16 | z16 | z16 | z16 | z16 | z16 | z16 | z16 | z16 | C8 C8 | E8 F8 | E8 E8 | D8 C8 | z8 D8- | %83
w: |||||||||Quae nunc|fla- gi-|tant de-|vo- ta|cor\-|
 D8 D8 | (E4 C4) D8 | C16 | z16 | C8 C8 | E8 F8 | E8 D8 | z8 E8 | G8 F8 | E16 | z16 | z16 | C8 C8 | %96
w: * da|et * o-|ra.||Tu- a|per pec-|ca- ta|dul-|ci- so-|na|||no- bis|
 E8 F8 | E16 | z8 (E8- | E4 D2 C2) D8 | C8 E8 | G8 F8 | E4 C4 G8 | F8 E4 C4 | G8 F8 | E16- | E16 || %107
w: con- ce-|das,|ve\-|* * * ni-|am per|sae- cu-|la, per sae-|cu- la, per|sae- cu-|la.||
[M:4/2] z16 | E16 | D16 | D16 | C16 | z16 | E16 | D16 | D16 | C16 | z16 | E16 | D16 | D16 | C16 | %122
w: |O|be-|ni-|gna,||O|re-|gi-|na,||O|Ma-|ri-|a,|
 z16 | C8 D8 | E8 z8 | E8 F4 E4 | D8 (C8- | C4 B,2 A,2 B,8) | z8 D8 | (D8 E8) | (D12 B,4) | %131
w: |quae so-|la|in- vi- o-|la\- *|* * * ta|per-|man\- *|si\- *|
 (C8 D8) | (E8 C8) | (D8 E8) | (C8 D8 | E16 | D16- | D16) | C16- | C16 | C16 | C16 | C16 | C16 | %144
w: sti, *|per\- *|man\- *|si\- *||||sti.||||||
 C16 | C16 | C16 |] %147
w: |||
V:3
 z16 | z16 | z16 | z16 | z16 | z16 | F16 | F8 F8 | G16 | A16 | z8 (A6 B2) | c4 d4 (D6 E2) | F8 c8 | %13
w: ||||||In-|vi- o-|la-|ta,|in\- *|vi- o- la\- *|ta, in-|
 A8 (F6 G2 | A4 B6 c2 d2 B2 | c6 d2 e4 c4) | z4 (c6 B2 c4) | (A6 B2) c8 | z4 (c4 A6 B2 | %19
w: te- gra *|||et * *|ca\- * sta|es, * *|
 c4) C4 D8 | E4 F4 E4 A4 | (F6 G2 A8) | z8 (A6 B2 | c6 B2 G4 A4- | A2 G2 A2 F2 G4 c4) | %25
w: * Ma- ri-|a, et ca- sta|es, * *|Ma- *|||
 (A6 B2 c8) | F8 z4 F4 | E4 C4 D8 | E4 C4 F8 | E8 c8- | c4 G4 B8 | A4 D4 E4 C4 | D8 E4 c4 | %33
w: ri\- * *|a, quae|es ef- fe-|cta, quae es|ef- fe\-|* cta ful-|gi- da cae- li|por- ta, cae-|
 B4 (A6 G2 G2 F2) | A8 G4 F4 | B8 A8 | (c12 d4) | e8 A4 f4 | d4 (e8 d2 c2 | =B8) A8 | z8 G8 | %41
w: li por\- * * *|ta, cae- li|por- ta.|O *|ma- ter al-|ma Chri\- * *|* sti,|al-|
 A4 (F6 G2 A4) | D8 z4 G4 | F4 (E6 D2 D2 C2) | E4 (c6 B2 A4) | G4 A4 E8 | z4 E4 F4 D4 | A8 z4 G4 | %48
w: ma Chri\- * *|sti, ca-|ris- si\- * * *|ma, ca\- * *|ris- si- ma.|ca- ris- si-|ma, ca-|
 (A4 E4) F8 | E16 | z16 | z16 | z8 c8 | d4 e4 f8 | e8 (A6 B2 | c4) (A2 B2 c2 d2) (e4- | %56
w: ris\- * si-|ma.|||Sus-|ci- pe pi-|a. Lau\- *|* dum * * * prae\-|
 e2 d2) d8 ^c4 | d4 (A2 B2 c2 d2 e4- | e4) d8 ^c4 | d8 f8 | (e6 d2 c2 B2) (A4- | %61
w: * * co- ni-|a, prae\- * * * *|* co- ni-|a, lau-|dum * * * prae\-|
 A2 G2) (F2 E2) F8 | E16- | E16 || z16 | z16 | F8 F8 | A8 B8 | A8 (c8- | c4 B2 A2) G8 | F8 G8- | %71
w: * * co\- * ni-|a.||||No- stra|ut pu-|ra pe\-|* * * cto-|ra sint|
 G8 G8 | (A8 G4 A4- | A2 G2 A2 F2 G4 A4- | A2 G2 A2 F2) (G4 A4- | A2 G2 A2 F2 G8) | F16 | z16 | %78
w: * et|cor\- * *||* * * * po\- *||ra,||
 z4 c4 (A4 F4) | C4 (c6 =B2 B2 A2) | c8 z4 c4 | (B2 c2) (d2 B2) c4 C4 | (3(F6 G2 A4) (3(B4 G4 B4) | %83
w: quae nunc *|fla- gi\- * * *|tant, quae|nunc * fla\- * gi- tant|de\- * * vo\- * *|
 A8 z4 F4 | G4 A4 (D6 E2) | F8 z4 F4 | F4 F4 (D6 E2) | F8 E8 | z16 | z16 | z4 A4 c8 | B8 A4 F4 | %92
w: ta, cor-|da et o\- *|ra. Tu-|a per pec\- *|ca- ta|||dul- ci-|so- na, dul-|
 c8 c8 | A16 | z16 | z4 c4 A4 (c4- | c2 B2 G4) A4 F4 | (c2 =B2 c2 d2 e2 f2 g2 e2) | (f6 e2) c8 | %99
w: ci- so-|na||no- bis con\-|* * * ce- das|ve\- * * * * * * *|ni\- * am|
 z16 | z4 (c6 =B2) A4- | A4 G4 A8- | A8 z8 | z4 A4 (c6 =B2 | G8) d8 | c16- | c16 || %107
w: |per * sae\-|* cu- la,||per sae\- *|* cu-|la.||
[M:4/2][K:treble-8] c16- | c16 | B16 | B16 | A16 | c16- | c16 | B16 | B16 | A16 | c16- | c16 | %119
w: O||be-|ni-|gna,|O||re-|gi-|na,|O||
 B16 | B16 | A4 (F2 G2 A2 B2 c4- | c2 =B2) (B2 A2) c8 | z4 A4 B4 A4 | c8 F8 | z4 c4 A4 c4 | %126
w: Ma-|ri-|a, quae * * * *|* * so\- * la|in- vi- o-|la- ta|in- vi- o-|
 B6 AB A2 G2 G4- | G2 E2 F4 (3G4 D4 G4 | (3(E4 G4 C4 (3F6 G2 A4 | B2 c2 d2 B2 c8) | A8 z4 (D4 | %131
w: la\- * * * * *||||ta, per\-|
 E4) (F6 G2 A2 B2 | c12 F4) | (A6 B2) c8 | z8 z4 A4 | (=B4 c4 G4 c4 | _B4) G8 (F2 E2 | D8) B8 | %138
w: * man\- * * *||si\- * sti,|per-|man\- * * *|* si\- sti, *|* per-|
 (A4 F4) (A6 B2) | c8 z4 F4 | (F6 G2) (A6 B2) | c8 (C2 D2 E2 F2 | G4) (A4 G4) (c4 | %143
w: man\- * si\- *|sti, per-|man\- * si\- *|sti, per\- * * *|* man\- * si\-|
 A4) (c6 B2 A2 G2 | A16- | A16 | A16) |] %147
w: * sti. * * *||||
V:4
 z16 | z16 | z16 | z16 | z16 | z16 | z16 | z16 | z16 | F16 | F8 F8 | G16 | A16- | A16 | z8 B8 | %15
w: |||||||||In-|vi- o-|la-|ta,||in-|
 A8 G8 | A8 G8 | F16 | G8 F8 | G16 | A16- | A16 | z16 | z16 | z16 | F16 | A8 B8 | A8 G8 | z8 A8 | %29
w: te- gra|et ca-|sta|es, Ma-|ri-|a,|||||quae|es ef-|fe- cta|ful-|
 G8 F8 | z8 G8 | F8 G8- | G8 A8 | z16 | z16 | z16 | A16 | G8 F8 | G12 F4 | G8 A8 | z16 | z16 | %42
w: gi- da|cae-|li por\-|* ta.||||O|ma- ter|al- ma|Chri- sti.|||
 z8 c8 | (B4 A4) G8 | A8 c8 | (B4 A4) G8 | A16 | z16 | z16 | z8 A8 | G4 F4 G8 | F8 G8 | A16 | z16 | %54
w: ca-|ris\- * si-|ma, ca-|ris\- * si-|ma.|||Sus-|ci- pe pi-|a. Lau-|dum||
 z16 | z8 c8 | B8 G8 | A8 z4 A4 | B8 G8 | A16- | A16 | A16 | A16 | A16 || z16 | z16 | z16 | z16 | %68
w: |prae-|co- ni-|a, prae-|co- ni-|a.|||||||||
 z16 | z16 | z16 | z16 | z16 | z16 | z16 | z16 | F8 F8 | A8 B8 | A8 A8 | G8 F8 | z8 G8- | G8 G8 | %82
w: ||||||||Quae nunc|fla- gi-|tant de-|vo- ta|cor\-|* da|
 (A4 F4) G8 | F16 | z16 | F8 F8 | A8 B8 | A8 G8 | z8 A8 | c8 B8 | A16 | z16 | z16 | F8 F8 | A8 B8 | %95
w: et * o-|ra.||Tu- a|per pec-|ca- ta|dul-|ci- so-|na|||no- bis|con- ce-|
 A16 | z8 (A8- | A4 G2 F2) G8 | F8 A8 | c8 B8 | A4 F4 c8 | =B8 A4 F4 | c8 =B8 | A16 | z16 | A16- | %106
w: das,|ve\-|* * * ni-|am per|sae- cu-|la, per sae-|cu- la, per|sae- cu-|la,||la.|
 A16 ||[M:4/2][K:treble-8] A16 | G16 | G16 | F16 | z16 | A16 | G16 | G16 | F16 | z16 | A16 | G16 | %119
w: |O|be-|ni-|gna,||O|re-|gi-|na,||O|Ma-|
 G16 | F16 | z16 | F8 G8 | A8 z8 | A8 B4 A4 | G8 (F8- | F4 E2 D2 E8) | z8 G8 | G8 A8 | (G12 E4) | %130
w: ri-|a,||quae so-|la|in- vi- o-|la- ta||per-|man\- *|si\- *|
 (F8 G8) | (A8 F8) | (G8 A8) | (F8 G8 | A16 | G16- | G16) | F16- | F16 | F16 | z8 F8 | %141
w: sti, *|per\- *|man\- *|si\- *||||sti,|||per-|
 (G4 E4 G4 C4) | (E4 F4 G8) | F16- | F16 | F16 | F16 |] %147
w: man\- * * *|si\- * *|sti.||||
V:5
 z16 | z16 | z16 | F,16 | F,8 F,8 | G,16 | A,8 (C6 B,2 | A,2 G,2) (F,6 E,2 D,4) | %8
w: |||In-|vi- o-|la-|ta, in\- *|* * vi\- * *|
 C,4 (B,,8 A,,2 G,,2) | F,,8 (C6 B,2 | A,2 G,2) (F,6 E,2 D,4) | C,4 (B,,8 A,,2 G,,2) | F,,16 | %13
w: o- la\- * *|ta, in\- *|* * vi\- * *|o- la\- * *|ta,|
 z4 F,4 (F,6 E,2 | D,8 G,,8 | z8 C,8 | (A,,6 B,,2 C,8) | F,,16 | C,8 D,8 | C,6 A,,2 B,,8) | %20
w: in- te\- *|* gra|et|ca\- * *|sta|es, Ma-|ri\- * *|
 (A,,16 | D,8 A,,4 (A,4 | G,4 F,8 E,2 D,2) | C,16- | C,16 | z8 F,8- | F,4 E,4) (D,8 | %27
w: a,|* Ma- ri\-||a,||quae|* * es|
 C,4) A,,4 B,,8 | (A,,8 F,,8) | C,8 F,,8 | (C,6 B,,2 G,,8) | (D,8 C,8) | (B,,8 A,,8) | %33
w: * ef- fe-|cta *|ful- gi-|da * *|cae\- *|li *|
 (D,4 C,4 B,,8) | A,,8 z8 | z16 | (A,,12 B,,4) | C,8 F,,8 | z4 C,8 D,4 | E,8 A,,4 A,4 | %40
w: por\- * *|ta.||O *|ma- ter|al- ma|Chri- sti, ca-|
 (F,4 G,4) E,8 | D,8 z8 | z8 C,8 | (D,4 A,,4) B,,8 | A,,16 | z8 z4 E,4 | (F,4 C,4) D,8 | %47
w: ris\- * si-|ma,|ca-|ris\- * si-|ma,|ca-|ris\- * si-|
 A,,8 z4 E,4 | (F,4 C,4) D,8 | A,,16 | z8 C,8 | D,4 F,4 E,8 | A,,16 | z16 | (A,,8 D,6 C,2) | %55
w: ma, ca-|ris\- * si-|ma,|Sus-|ci- pe pi-|a.||Lau\- * *|
 A,,8 A,8 | (G,6 F,2) E,8 | D,8 (A,8 | G,6 F,2 E,8 | D,8) D,8 | z8 A,,8 | D,8 D,8 | A,,16- | %63
w: dum prae-|co\- * ni-|a, lau\-||* dum|prae-|co- ni-|a.|
 A,,16 || F,8 F,8 | A,8 B,8 | A,8 (C8- | C4 B,2 A,2) G,8 | F,4 (F,,2 G,,2 A,,2 B,,2 C,2 D,2 | %69
w: |No- stra|ut pu-|ra pe\-|* * * cto-|ra, pe\- * * * * *|
 E,4) F,8 E,4 | F,4 D,4 E,4 (C,4- | C,4 B,,2 A,,2) B,,4 C,4 | F,,4 (F,4 E,4 F,4- | %73
w: * to- ra|sint et cor- po\-|* * * ra, sint|et cor- * *|
 F,2 E,2 F,2 D,2 E,4 F,4 | C,4 F,4 E,4) (F,4- | F,2 E,2 E,2 D,2 E,2 F,2 G,2 E,2) | F,8 z4 F,4 | %77
w: |* * * po\-||ra, quae|
 F,4 F,4 G,8 | F,16 | z4 C,4 D,8 | C,16 | G,,8 C,4 E,4 | (D,8 G,,8) | D,8 z4 D,4 | %84
w: nunc fla- gi-|tant|de- vo-|ta|cor- da et|o\- *|ra, cor-|
 C,4 A,,4 (B,,6 A,,2) | F,,16 | z4 F,,4 (B,,6 A,,2 | F,,8) C,8 | (C,4 E,4) D,8 | C,8 z8 | %90
w: da et o\- *|ra.|Tu- a *|* per|pec\- * ca-|ta|
 z4 A,,4 (A,,2 B,,2 C,2 D,2 | E,2 F,2 G,2 E,2) (F,6 E,2) | C,16 | z8 F,8 | F,4 F,4 B,,8 | %95
w: dul- ci\- * * *|* * * * so\- *|na|no-|bis con- ce-|
 (F,12 E,2 D,2 | C,4 E,4) D,8 | C,8 C,4 C,4 | D,8 A,,8 | z16 | z8 z4 A,,4 | E,8 (F,6 E,2) | %102
w: das, * *|* * con-|ce- das ve-|ni- am||per|sae- cu\- *|
 C,4 A,,4 E,8 | (F,6 E,2) C,4 A,,4 | E,8 (D,6 C,2) | A,,16- | A,,16 ||[M:4/2] z16 | C,16 | %109
w: la, per sae-|cu\- * la, per|sae- cu\- *|la.|||O|
 G,,8 G,,8 | (B,,12 A,,4 | F,,16) | z16 | C,16 | G,,8 G,,8 | (B,,12 A,,4 | F,,16) | z16 | C,16 | %119
w: be- ni-|gna, *|||O|re- gi-|na, *|||O|
 G,,8 G,,8 | (B,,12 A,,4 | F,,8 (F,6 E,2) | D,8 C,8 | z4 F,4 B,,4 D,4 | C,8 B,,4 F,,4 | C,8) F,,8 | %126
w: Ma- ri-|a, *|* quae *|so- la|in- vi- o-|la\- * *|* ta|
 B,,8 (C,6 B,,2) | A,,8 G,,8 | C,4 E,4 D,8 | G,,8 C,8 | (D,6 C,2 B,,8) | (A,,8 D,8 | C,8 F,6 E,2 | %133
w: per- man\- *|si- sti,|per- man- si-|sti, per-|man\- * *|si\- *||
 D,8) C,8 | z4 (F,4 D,4 F,4) | E,4 (C,6 B,,2 C,4) | G,,8 z4 G,,4 | B,,8 B,,8 | F,,8 (F,6 G,2) | %139
w: * sti,|per\- * *|man\- si\- * *|sti, per-|man- si-|sti, per\- *|
 (A,6 B,2 C6 B,2 | A,2 G,2 F,8) (E,2 D,2) | C,16- | C,16 | z8 F,8- | F,4 F,4 F,8 | F,,16- | %146
w: man\- * * *|* * * si\- *|sti,||per\-|* man- si-|sti.|
 F,,16 |] %147
w: |

